resources/icons/outliner4.svg

<svg xmlns="http://www.w3.org/2000/svg"  viewBox="0 0 24 24"><path d="m9.5 18h11a1.5 1.5 0 0 1 1.5 1.5 1.5 1.5 0 0 1-1.5 1.5h-11a1.5 1.5 0 0 1-1.5-1.5 1.5 1.5 0 0 1 1.5-1.5z"/><path d="m9.5 10.5h11a1.5 1.5 0 0 1 1.5 1.5 1.5 1.5 0 0 1-1.5 1.5h-11a1.5 1.5 0 0 1-1.5-1.5 1.5 1.5 0 0 1 1.5-1.5z"/><path d="m9.5 3h11a1.5 1.5 0 0 1 1.5 1.5 1.5 1.5 0 0 1-1.5 1.5h-11a1.5 1.5 0 0 1-1.5-1.5 1.5 1.5 0 0 1 1.5-1.5z"/><circle cx="3.5" cy="4.5" r="1.5"/><circle cx="3.5" cy="12" r="1.5"/><circle cx="3.5" cy="19.5" r="1.5"/></svg>

<svg xmlns="http://www.w3.org/2000/svg" viewBox="0 0 24 24">
  <title>locations</title>
  <g>
    <path d="M9.5,18h11A1.5,1.5,0,0,1,22,19.5h0A1.5,1.5,0,0,1,20.5,21H9.5A1.5,1.5,0,0,1,8,19.5H8A1.5,1.5,0,0,1,9.5,18Z" fill="#222221" fill-rule="evenodd"/>
    <path d="M9.5,10.5h11A1.5,1.5,0,0,1,22,12h0a1.5,1.5,0,0,1-1.5,1.5H9.5A1.5,1.5,0,0,1,8,12H8A1.5,1.5,0,0,1,9.5,10.5Z" fill="#222221" fill-rule="evenodd"/>
    <path d="M9.5,3h11A1.5,1.5,0,0,1,22,4.5h0A1.5,1.5,0,0,1,20.5,6H9.5A1.5,1.5,0,0,1,8,4.5H8A1.5,1.5,0,0,1,9.5,3Z" fill="#222221" fill-rule="evenodd"/>
    <circle cx="3.5" cy="4.5" r="1.5" fill="#222221"/>
    <circle cx="3.5" cy="12" r="1.5" fill="#222221"/>
    <circle cx="3.5" cy="19.5" r="1.5" fill="#222221"/>
  </g>
</svg>
